X:591
T: Der Leichtsinn (289), S. 603
N: T0479
O: Luxemburg
S: Singendes Volk, Esch-Alzette, 1937 posth.]
N: Tadler, hhh Nikolaus Schroeder, 26.2.1933
R: ???]
M: 3/4
L: 1/16
K: G
D3G | G4F4E3E | E2D2D4
D3B | B4A4E2F2 | A2G2G4
D3G | G2F2F4F3F | E2D2D4
D2B2 | B2A2A4E2F2 | G4z4
D3G | G2F2F4E3E | E2D2D4
D3B | B2A2A4E2F2 | G4z4
D3G | G2F2F4E3E | E2D2D4
D3B | B2A2A4E2F2 | G4z4

